flaticon/files-and-folders/clipboard-11.svg

<svg xmlns="http://www.w3.org/2000/svg" width="32" height="32" viewBox="0 0 24 24">
    <path d="M 18.398438 2.800781 L 16.398438 2.800781 L 16.398438 2.398438 C 16.398438 1.960938 16.039062 1.601562 15.601562 1.601562 L 14.398438 1.601562 L 14.398438 1.199219 C 14.398438 0.519531 13.878906 0 13.199219 0 L 10.800781 0 C 10.121094 0 9.601562 0.558594 9.601562 1.199219 L 9.601562 1.601562 L 8.398438 1.601562 C 7.960938 1.601562 7.601562 1.960938 7.601562 2.398438 L 7.601562 2.800781 L 5.601562 2.800781 C 4.480469 2.800781 3.601562 3.679688 3.601562 4.800781 L 3.601562 22 C 3.601562 23.121094 4.480469 24 5.601562 24 L 18.398438 24 C 19.519531 24 20.398438 23.121094 20.398438 22 L 20.398438 4.800781 C 20.398438 3.679688 19.519531 2.800781 18.398438 2.800781 Z M 8.398438 2.398438 L 10 2.398438 C 10.238281 2.398438 10.398438 2.238281 10.398438 2 L 10.398438 1.199219 C 10.398438 0.960938 10.558594 0.800781 10.800781 0.800781 L 13.199219 0.800781 C 13.441406 0.800781 13.601562 1 13.601562 1.199219 L 13.601562 2 C 13.601562 2.238281 13.761719 2.398438 14 2.398438 L 15.601562 2.398438 L 15.601562 5.199219 L 8.398438 5.199219 Z M 19.601562 22 C 19.601562 22.679688 19.078125 23.199219 18.398438 23.199219 L 5.601562 23.199219 C 4.921875 23.199219 4.398438 22.679688 4.398438 22 L 4.398438 4.800781 C 4.398438 4.121094 4.921875 3.601562 5.601562 3.601562 L 7.601562 3.601562 L 7.601562 5.199219 C 7.601562 5.640625 7.960938 6 8.398438 6 L 15.601562 6 C 16.039062 6 16.398438 5.640625 16.398438 5.199219 L 16.398438 3.601562 L 18.398438 3.601562 C 19.078125 3.601562 19.601562 4.121094 19.601562 4.800781 Z M 19.601562 22"/>
    <path d="M6.398438 16L11.199219 16C11.441406 16 11.601562 15.839844 11.601562 15.601562 11.601562 15.359375 11.441406 15.199219 11.199219 15.199219L6.398438 15.199219C6.160156 15.199219 6 15.359375 6 15.601562 6 15.839844 6.160156 16 6.398438 16zM16 15.199219L12.800781 15.199219C12.558594 15.199219 12.398438 15.359375 12.398438 15.601562 12.398438 15.839844 12.558594 16 12.800781 16L16 16C16.238281 16 16.398438 15.839844 16.398438 15.601562 16.398438 15.359375 16.238281 15.199219 16 15.199219zM14.800781 18.398438L10 18.398438C9.761719 18.398438 9.601562 18.558594 9.601562 18.800781 9.601562 19.039062 9.761719 19.199219 10 19.199219L14.800781 19.199219C15.039062 19.199219 15.199219 19.039062 15.199219 18.800781 15.199219 18.558594 15.039062 18.398438 14.800781 18.398438zM6.398438 9.601562L8.800781 9.601562C9.039062 9.601562 9.199219 9.441406 9.199219 9.199219 9.199219 8.960938 9.039062 8.800781 8.800781 8.800781L6.398438 8.800781C6.160156 8.800781 6 8.960938 6 9.199219 6 9.441406 6.160156 9.601562 6.398438 9.601562zM10.398438 9.601562L12.398438 9.601562C12.640625 9.601562 12.800781 9.441406 12.800781 9.199219 12.800781 8.960938 12.640625 8.800781 12.398438 8.800781L10.398438 8.800781C10.160156 8.800781 10 8.960938 10 9.199219 10 9.441406 10.160156 9.601562 10.398438 9.601562zM17.601562 8.800781L14 8.800781C13.761719 8.800781 13.601562 8.960938 13.601562 9.199219 13.601562 9.441406 13.761719 9.601562 14 9.601562L17.601562 9.601562C17.839844 9.601562 18 9.441406 18 9.199219 18 8.960938 17.839844 8.800781 17.601562 8.800781zM6.398438 12.800781L10.398438 12.800781C10.640625 12.800781 10.800781 12.640625 10.800781 12.398438 10.800781 12.160156 10.640625 12 10.398438 12L6.398438 12C6.160156 12 6 12.160156 6 12.398438 6 12.640625 6.160156 12.800781 6.398438 12.800781zM8.398438 18.398438L6.398438 18.398438C6.160156 18.398438 6 18.558594 6 18.800781 6 19.039062 6.160156 19.199219 6.398438 19.199219L8.398438 19.199219C8.640625 19.199219 8.800781 19.039062 8.800781 18.800781 8.800781 18.558594 8.640625 18.398438 8.398438 18.398438zM16.800781 12L12 12C11.761719 12 11.601562 12.160156 11.601562 12.398438 11.601562 12.640625 11.761719 12.800781 12 12.800781L16.800781 12.800781C17.039062 12.800781 17.199219 12.640625 17.199219 12.398438 17.199219 12.160156 17.039062 12 16.800781 12zM16.800781 12"/>
</svg>

<svg xmlns="http://www.w3.org/2000/svg" width="32" height="32" viewBox="0 0 24 24">
    <path d="M18.398 2.8h-2v-.402a.8.8 0 0 0-.796-.796h-1.204v-.403C14.398.52 13.878 0 13.2 0h-2.398c-.68 0-1.2.559-1.2 1.2v.402H8.399a.8.8 0 0 0-.796.796v.403h-2c-1.122 0-2 .879-2 2V22c0 1.121.878 2 2 2h12.796c1.122 0 2-.879 2-2V4.8c0-1.12-.878-2-2-2zm-10-.402H10c.238 0 .398-.16.398-.398v-.8c0-.24.16-.4.403-.4h2.398a.4.4 0 0 1 .403.4V2c0 .238.16.398.398.398h1.602V5.2H8.398zM19.602 22c0 .68-.524 1.2-1.204 1.2H5.602A1.18 1.18 0 0 1 4.398 22V4.8c0-.679.524-1.198 1.204-1.198h2v1.597c0 .442.359.801.796.801h7.204c.437 0 .796-.36.796-.8V3.601h2c.68 0 1.204.52 1.204 1.199zm0 0"/>
    <path d="M6.398 16H11.2c.242 0 .403-.16.403-.398 0-.243-.16-.403-.403-.403H6.4c-.239 0-.399.16-.399.403 0 .238.16.398.398.398zm0 0M16 15.2h-3.2c-.241 0-.402.16-.402.402 0 .238.16.398.403.398H16c.238 0 .398-.16.398-.398 0-.243-.16-.403-.398-.403zm0 0M14.8 18.398H10c-.238 0-.398.16-.398.403 0 .238.16.398.398.398h4.8c.24 0 .4-.16.4-.398 0-.242-.16-.403-.4-.403zm0 0M6.398 9.602h2.403c.238 0 .398-.16.398-.403 0-.238-.16-.398-.398-.398H6.398C6.16 8.8 6 8.96 6 9.199c0 .242.16.403.398.403zm0 0M10.398 9.602h2c.243 0 .403-.16.403-.403 0-.238-.16-.398-.403-.398h-2c-.238 0-.398.16-.398.398 0 .242.16.403.398.403zm0 0M17.602 8.8H14c-.238 0-.398.16-.398.4 0 .241.16.402.398.402h3.602c.238 0 .398-.16.398-.403 0-.238-.16-.398-.398-.398zm0 0M6.398 12.8h4c.243 0 .403-.16.403-.402 0-.238-.16-.398-.403-.398h-4c-.238 0-.398.16-.398.398 0 .243.16.403.398.403zm0 0M8.398 18.398h-2c-.238 0-.398.16-.398.403 0 .238.16.398.398.398h2c.243 0 .403-.16.403-.398 0-.242-.16-.403-.403-.403zm0 0M16.8 12H12c-.238 0-.398.16-.398.398 0 .243.16.403.398.403h4.8c.24 0 .4-.16.4-.403 0-.238-.16-.398-.4-.398zm0 0"/>
</svg>
